frontend/public/svg/misc/chip.svg

<svg width="151" height="146" viewBox="0 0 151 146" fill="none" xmlns="http://www.w3.org/2000/svg">
<path d="M128.168 43.2406V65.8534C132.871 66.198 137.202 66.4894 141.528 66.8425C143.595 67.0119 145.763 66.981 147.673 67.6485C148.879 68.0705 150.379 69.5518 150.484 70.6768C150.585 71.767 149.303 73.375 148.201 74.0779C147.111 74.7717 145.487 74.7107 144.085 74.8177C138.869 75.2161 133.649 75.5469 128.202 75.919V93.9729C133.162 94.5235 138.221 95.0736 143.278 95.6544C144.578 95.8034 145.865 96.0614 147.161 96.2451C148.973 96.5044 150.346 97.376 150.467 99.2945C150.606 101.487 148.948 102.362 147.159 102.693C145.004 103.044 142.831 103.281 140.651 103.403C136.531 103.722 132.406 103.98 127.94 104.287C127.84 104.95 127.678 106.098 127.491 107.241C126.605 112.744 123.697 116.851 118.49 118.815C114.749 120.226 110.745 120.967 106.847 121.939C105.605 122.182 104.352 122.361 103.092 122.475C103.092 126.715 103.097 130.818 103.092 134.921C103.088 136.882 103.281 138.875 102.994 140.795C102.511 144.038 100.172 145.972 97.4752 145.726C94.8499 145.486 92.6676 143.064 92.8152 139.91C92.98 136.318 93.6028 132.748 94.0131 129.168C94.25 127.112 94.4679 125.054 94.735 122.618H74.9366C75.1473 126.985 75.4177 131.513 75.5608 136.045C75.6931 137.883 75.5846 139.731 75.2378 141.542C75.0595 142.586 74.5005 143.528 73.6688 144.184C72.837 144.841 71.7915 145.167 70.7341 145.098C69.7286 145.124 68.7494 144.775 67.9871 144.119C67.2248 143.463 66.734 142.546 66.6103 141.548C66.3004 139.403 66.2421 137.23 66.4363 135.071C66.7212 130.836 67.1997 126.614 67.6388 121.952H48.051C48.0162 122.674 47.9158 123.706 47.9257 124.737C47.9716 129.327 48.1442 133.919 48.0865 138.507C48.0359 142.487 46.0794 145.019 43.435 144.925C40.7617 144.831 39.0237 142.251 39.3224 138.195C39.6505 133.732 40.3069 129.296 40.8057 124.846C40.9481 123.572 41.0407 122.292 41.168 120.879C39.5521 120.537 38.1718 120.289 36.8152 119.948C31.8539 118.695 28.4685 115.809 27.316 110.654C26.6971 107.887 26.0854 105.119 25.4599 102.355C25.2754 101.538 25.0562 100.73 25.0083 100.54C18.8551 100.54 13.0872 100.545 7.31999 100.534C6.55418 100.528 5.78919 100.483 5.02808 100.398C2.14676 100.092 0.543315 98.7373 0.49212 96.5963C0.442239 94.496 1.97348 92.974 4.87844 92.6038C7.91006 92.2172 10.9705 92.0544 14.0199 91.8083C17.2622 91.5457 20.5052 91.3042 23.886 91.0423C23.5657 84.5584 23.25 78.1657 22.9231 71.5491C20.4756 71.5491 18.1128 71.5491 15.75 71.5491C12.5819 71.5531 9.41176 71.6299 6.24689 71.5294C5.05125 71.4639 3.87461 71.2016 2.76437 70.753C1.07692 70.1039 -0.158311 68.7 0.446833 66.9554C1.01686 65.6284 2.0674 64.5659 3.38787 63.9809C4.71499 63.4165 6.39589 63.7183 7.91662 63.566C12.9973 63.0541 18.0747 62.508 23.5762 61.9311V45.1472C18.0629 44.59 12.3449 44.0131 6.62494 43.4329C6.07876 43.4059 5.53548 43.337 4.99986 43.2268C3.2074 42.7542 1.68272 41.9561 1.63875 39.7915C1.59346 37.56 3.11814 36.6169 4.96901 36.4758C8.22707 36.2264 11.5107 36.1685 14.7793 36.2289C18.2625 36.2946 21.7417 36.5886 25.4231 36.7941C27.2517 32.3559 28.0242 26.9667 32.7977 24.5579C37.1138 22.3795 41.8552 21.0399 46.8309 19.1713C47.27 15.1434 47.7885 10.3961 48.3031 5.6508C48.6969 2.04094 49.7529 0.503147 51.7928 0.587815C53.7618 0.669201 54.7988 2.32317 55.0515 5.89692C55.3502 10.1244 55.6048 14.3545 55.8837 18.664C58.8602 18.664 61.6661 18.7106 64.4693 18.6502C67.1898 18.5918 69.9071 18.4244 72.5042 18.3096C72.9249 13.2952 73.3089 8.45532 73.7473 3.62073C73.9002 1.9346 74.2573 0.178285 76.3615 0.0227331C78.6449 -0.146602 79.401 1.69437 79.6314 3.42973C80.2733 8.26956 80.6815 13.1435 81.2335 18.5458C83.4454 18.6417 86.2361 18.8084 89.0288 18.8701C91.746 18.9305 94.4646 18.8832 97.3295 18.8832C97.6176 14.6584 97.8677 10.5622 98.1919 6.47186C98.312 4.95703 98.3449 3.34506 98.9139 1.9871C99.1537 1.48556 99.5053 1.0458 99.9418 0.701584C100.378 0.357368 100.888 0.117949 101.432 0.00174185C102.356 -0.0474835 103.401 0.957352 104.27 1.65701C104.624 2.07757 104.823 2.60787 104.831 3.15804C105.357 8.24663 105.84 13.3392 106.384 18.9227C117.58 18.0812 125.388 22.5777 126.453 34.8342C132.225 34.8342 137.661 34.8086 143.097 34.8513C144.606 34.8631 146.297 34.703 147.574 35.3107C148.75 35.8726 150.161 37.327 150.221 38.4539C150.283 39.6176 149.085 41.2244 147.986 41.966C146.924 42.6814 145.295 42.6919 143.899 42.7503C138.676 42.9754 133.446 43.087 128.168 43.2406ZM118.668 74.8262H119.255C119.255 71.1126 119.367 67.3958 119.233 63.6869C118.905 54.6419 118.813 45.5719 117.969 36.5683C117.171 28.0517 115.926 27.1754 107.159 26.9779C92.5271 26.6497 77.8862 26.1903 63.2584 26.4239C55.8897 26.542 48.5118 27.8619 41.2002 29.0269C37.1309 29.6754 34.2738 32.1623 33.8085 36.6405C33.5834 38.8031 33.2322 40.9612 33.1581 43.129C32.9513 49.1293 32.8876 55.1354 32.717 61.1376C32.3232 75.1242 32.1631 89.0976 35.1881 102.877C36.6491 109.531 36.7699 109.965 43.4206 110.236C62.9512 111.034 82.4923 111.604 102.032 112.082C105.306 112.058 108.567 111.648 111.745 110.862C117.49 109.615 118.586 108.223 118.641 102.35C118.731 93.1754 118.668 84.0005 118.668 74.8262Z" fill="black"/>
<path d="M48.3307 70.4793C48.3307 64.8033 48.2742 59.1246 48.3471 53.4512C48.4127 48.2471 50.026 46.1495 55.2143 45.0462C58.4143 44.3596 61.6725 43.98 64.9446 43.9127C73.6771 43.7597 82.4143 43.8543 91.1495 43.8635C91.9141 43.869 92.6777 43.9229 93.4355 44.0249C98.5707 44.6871 101.264 46.7034 102.217 51.813C103.254 57.1608 103.84 62.5864 103.968 68.0324C104.077 75.1038 103.421 82.1857 103.191 89.2656C103.08 92.672 101.159 94.4973 98.1369 95.212C95.2788 95.912 92.3719 96.3946 89.4411 96.656C78.7683 97.5092 68.0648 98.0343 57.4118 96.6028C50.6928 95.701 48.9293 93.1656 49.1071 86.5136C49.2502 81.1736 49.136 75.8264 49.136 70.4818L48.3307 70.4793ZM95.8042 87.6917C95.8042 81.597 95.7695 75.6151 95.8134 69.6359C95.8581 63.572 96.1764 57.4936 94.8394 51.4441C91.7467 51.2426 88.9271 50.8915 86.1101 50.906C77.1728 50.9526 68.2322 51.0267 59.3007 51.3195C55.7256 51.4369 55.5524 51.7552 55.7322 55.2384C56.3071 66.3351 57.0015 77.4227 57.6467 88.4642C61.9996 89.7119 84.5848 89.2932 95.8042 87.6917Z" fill="black"/>
</svg>

<svg xmlns="http://www.w3.org/2000/svg" width="151" height="146" fill="none" viewBox="0 0 151 146"><path fill="#000" d="M128.168 43.24v22.613c4.703.345 9.034.636 13.36.99 2.067.169 4.235.138 6.145.805 1.206.422 2.706 1.904 2.811 3.029.101 1.09-1.181 2.698-2.283 3.4-1.09.695-2.714.634-4.116.74-5.216.4-10.436.73-15.883 1.102v18.054c4.96.55 10.019 1.1 15.076 1.681 1.3.15 2.587.407 3.883.591 1.812.26 3.185 1.131 3.306 3.05.139 2.192-1.519 3.067-3.308 3.398a62 62 0 0 1-6.508.71c-4.12.319-8.245.577-12.711.884-.1.663-.262 1.811-.449 2.954-.886 5.503-3.794 9.61-9.001 11.574-3.741 1.411-7.745 2.152-11.643 3.124a37 37 0 0 1-3.755.536c0 4.24.005 8.343 0 12.446-.004 1.961.189 3.954-.098 5.874-.483 3.243-2.822 5.177-5.519 4.931-2.625-.24-4.807-2.662-4.66-5.816.165-3.592.788-7.162 1.198-10.742.237-2.056.455-4.114.722-6.55H74.937c.21 4.367.48 8.895.624 13.427a21.2 21.2 0 0 1-.323 5.497 4.284 4.284 0 0 1-4.504 3.556 4.05 4.05 0 0 1-4.124-3.55 27.8 27.8 0 0 1-.174-6.477c.285-4.235.764-8.457 1.203-13.119H48.05c-.035.722-.135 1.754-.125 2.785.046 4.59.218 9.182.16 13.77-.05 3.98-2.007 6.512-4.651 6.418-2.673-.094-4.411-2.674-4.113-6.73.328-4.463.985-8.899 1.484-13.349.142-1.274.235-2.554.362-3.967-1.616-.342-2.996-.59-4.353-.931-4.961-1.253-8.346-4.139-9.499-9.294-.619-2.767-1.23-5.535-1.856-8.299-.185-.817-.404-1.625-.452-1.815-6.153 0-11.92.005-17.688-.006a22 22 0 0 1-2.292-.136c-2.881-.306-4.485-1.66-4.536-3.802-.05-2.1 1.481-3.622 4.386-3.992 3.032-.387 6.092-.55 9.142-.796 3.242-.262 6.485-.504 9.866-.766l-.963-19.493H15.75c-3.168.004-6.338.08-9.503-.02a10.9 10.9 0 0 1-3.483-.776C1.077 70.103-.158 68.7.447 66.955a5.73 5.73 0 0 1 2.94-2.974c1.328-.565 3.009-.263 4.53-.415 5.08-.512 10.158-1.058 15.66-1.635V45.147c-5.514-.557-11.232-1.134-16.952-1.714A11 11 0 0 1 5 43.227c-1.793-.473-3.317-1.27-3.361-3.435-.046-2.232 1.48-3.175 3.33-3.316 3.258-.25 6.542-.307 9.81-.247 3.483.066 6.963.36 10.644.565 1.829-4.438 2.601-9.827 7.375-12.236 4.316-2.178 9.057-3.518 14.033-5.387.439-4.028.957-8.775 1.472-13.52.394-3.61 1.45-5.148 3.49-5.063 1.969.081 3.006 1.735 3.258 5.309.3 4.227.554 8.458.833 12.767 2.976 0 5.782.047 8.585-.014 2.72-.058 5.438-.226 8.035-.34.42-5.015.805-9.855 1.243-14.69.153-1.685.51-3.442 2.615-3.597 2.283-.17 3.039 1.671 3.27 3.407.641 4.84 1.05 9.714 1.602 15.116 2.211.096 5.002.262 7.795.324 2.717.06 5.436.013 8.3.013.289-4.225.539-8.32.863-12.411.12-1.515.153-3.127.722-4.485a3.63 3.63 0 0 1 2.518-1.985c.924-.05 1.969.955 2.838 1.655.354.42.553.95.561 1.501.526 5.089 1.009 10.181 1.553 15.765 11.196-.842 19.004 3.655 20.069 15.911 5.772 0 11.208-.025 16.644.017 1.509.012 3.2-.148 4.477.46 1.176.562 2.587 2.016 2.647 3.143.062 1.164-1.136 2.77-2.235 3.512-1.062.715-2.691.726-4.087.784-5.223.225-10.453.337-15.731.49m-9.5 31.586h.587c0-3.713.112-7.43-.022-11.14-.328-9.044-.42-18.114-1.264-27.118-.798-8.516-2.043-9.393-10.81-9.59-14.632-.328-29.273-.788-43.9-.554-7.37.118-14.747 1.438-22.059 2.603-4.07.648-6.926 3.135-7.392 7.614-.225 2.162-.576 4.32-.65 6.488-.207 6-.27 12.006-.441 18.009-.394 13.986-.554 27.96 2.471 41.739 1.461 6.654 1.582 7.088 8.233 7.359 19.53.798 39.071 1.368 58.611 1.846a41.7 41.7 0 0 0 9.713-1.22c5.745-1.247 6.841-2.639 6.896-8.512.09-9.175.027-18.35.027-27.524"/><path fill="#000" d="M48.33 70.48c0-5.677-.056-11.355.017-17.029.066-5.204 1.679-7.301 6.867-8.405a51.4 51.4 0 0 1 9.73-1.133c8.733-.153 17.47-.059 26.206-.05q1.148.009 2.285.162c5.136.662 7.829 2.678 8.782 7.788a97 97 0 0 1 1.751 16.22c.109 7.07-.547 14.153-.777 21.233-.111 3.406-2.032 5.231-5.054 5.946a58 58 0 0 1-8.696 1.444c-10.673.853-21.376 1.378-32.03-.053-6.718-.902-8.482-3.437-8.304-10.09.143-5.34.029-10.687.029-16.031zm47.474 17.212c0-6.095-.035-12.077.01-18.056.044-6.064.362-12.142-.975-18.192-3.092-.201-5.912-.553-8.729-.538-8.937.047-17.878.12-26.81.413-3.574.118-3.748.436-3.568 3.92.575 11.096 1.27 22.184 1.915 33.225 4.353 1.248 26.938.83 38.157-.772"/></svg>
